X: 661
T: Jian lantan
%%abc-version 2.0
%%abcx-abcm2ps-target-version 5.9.1 (29 Sep 2008)
%%abc-creator hum2abc beta
%%abcx-conversion-date 2013/10/02 07:52:30
%%abc-edited-by Helmut Schaffrath
%%humdrum-veritas 2127683777
%%humdrum-veritas-data 2767995843
%%continueall 1
%%barnumbers 0
L: 1/8
M: 2/4
K: F
d2d f [I:setbarnb 1]| 
d2c2 | 
f> f f c | 
d cA2 | 
A2A c | 
d f c A | 
A> G F A | 
G4 | 
A2A c | 
f2d d | 
A2c d | 
F2D2 | 
d d A c | 
d c A c | 
GD2C | 
D4 |]  



